src/assets/background.svg

<svg xmlns="http://www.w3.org/2000/svg" fill="none" stroke="#CCC" viewBox="0 0 481 201">
  <path d="M0 30h60v90h30v80c75 0 75-170 150-170V0v30h60v90h30v80c75 0 75-170 150-170V0" />
  <path d="M0 200c75 0 75-170 150-170v90h30v80h60c75 0 75-170 150-170v90h30v80h60" />
</svg>

<svg xmlns="http://www.w3.org/2000/svg" viewBox="0 0 481 201" fill="none" stroke="#CCC">
  <path d="M 0 30 L 60 30 L 60 120 L 90 120 L 90 200 C 165 200 165 30 240 30 L 240 0 L 240 30 L 300 30 L 300 120 L 330 120 L 330 200 C 405 200 405 30 480 30 L 480 0" />
  <path d="M 0 200 C 75 200 75 30 150 30 L 150 120 L 180 120 L 180 200 L 240 200    L 240 200 C 315 200 315 30 390 30 L 390 120 L 420 120 L 420 200 L 480 200" />
</svg>
